icons/svg/crypto/og.svg

<svg fill="none" height="32" viewBox="0 0 32 32" width="32" xmlns="http://www.w3.org/2000/svg"><path d="m26.8635 24.4475-10.8245 6.5525-10.88861-6.5525v-16.8308l10.89511-6.6167 10.818 6.6167z" fill="#1e2c4e"/><g fill="#fff"><path d="m7.01367 8.98506v14.10064l8.03003 4.8244v-23.74946zm5.91003 15.17344-3.79011-2.2805v-11.6981l3.79011-2.28049z"/><path d="m25.1286 14.5546v-5.56954l-8.03-4.82442v23.74946l8.03-4.8308v-6.469h-1.9272-.1927-1.863v2.1199h1.863v3.1542l-3.7902 2.2741v-16.25267l3.7902 2.27407v4.3747z"/></g></svg>

<svg fill="none" height="32" width="32" xmlns="http://www.w3.org/2000/svg">
    <path d="M26.863 24.448 16.04 31 5.15 24.448V7.617L16.046 1l10.817 6.617v16.83Z"
        fill="#1E2C4E" />
    <path d="M7.014 8.985v14.1l8.03 4.825V4.16l-8.03 4.825Zm5.91 15.174-3.79-2.281V10.18l3.79-2.28v16.258Zm12.205-9.604v-5.57l-8.03-4.824v23.75l8.03-4.832V16.61h-3.983v2.12h1.863v3.154l-3.79 2.274V7.907l3.79 2.274v4.375h2.12Z"
        fill="#fff" />
</svg>
